app/dist/common/images/guangdong-prov-exp.svg

<svg height="18" viewBox="0 0 18 18" width="18" xmlns="http://www.w3.org/2000/svg"><path d="m0 0h18v18h-18z" fill="#f0f3fa"/><path d="m3 9.2c0-3.17 3.02-4.12 4.5-4.2-2.67.75-3.24 2.91-3.17 4h9.34c-.18-2.42-2.2-3.61-3.17-4 2 0 4.5 1.86 4.5 4.2 0 1.86-1.63 3.1-2.44 3.5.7-.75.88-1.56.88-1.87-.59-.24-2.3-.83-4.44-.83-2.13 0-3.7.6-4.22.83 0 .74.44 1.55.66 1.86a3.85 3.85 0 0 1 -2.44-3.49z" fill="#fb0300"/><path d="m7.95 6-1.45 3h1.45l.55-3zm2.05 0 1.5 3h-1.5l-.5-3zm-2 7h-2.5l1.1-1.85 2.4-.65 2.4.65 1.1 1.85h-2.5v-.94c-.07-.31-.12-1.06-1-1.06s-.93.75-1 1.06z" fill="#07209b"/></svg>

<!-- by TradingView --><svg width="18" height="18" viewBox="0 0 18 18" xmlns="http://www.w3.org/2000/svg"><path fill="#F0F3FA" d="M0 0h18v18H0z"/><path d="M3 9.2C3 6.03 6.02 5.08 7.5 5c-2.67.75-3.24 2.91-3.17 4h9.34c-.18-2.42-2.2-3.61-3.17-4 2 0 4.5 1.86 4.5 4.2 0 1.86-1.63 3.1-2.44 3.5.7-.75.88-1.56.88-1.87-.59-.24-2.3-.83-4.44-.83-2.13 0-3.7.6-4.22.83 0 .74.44 1.55.66 1.86A3.85 3.85 0 0 1 3 9.2Z" fill="#FB0300"/><path d="M7.95 6 6.5 9h1.45l.55-3h-.55ZM10 6l1.5 3H10l-.5-3h.5ZM8 13H5.5l1.1-1.85L9 10.5l2.4.65L12.5 13H10v-.94C9.93 11.75 9.88 11 9 11s-.93.75-1 1.06V13Z" fill="#07209B"/></svg>
